X: 1
T: Sinkka
O: Finland
R: polka
Z: 2013 John Chambers <jc:trillian.mit.edu>
S: handwritten ms of my own, from the 1970s
M: 2/4
L: 1/8
K: C
|: "C"GG G2 | "C"AG G2 | "G7"BA GF |1 "C"ED C2 :|2 "C"ED "E7"CB, |]
|: "Am"A,/B,/C/D/ EE | "E7"DC B,2 |1 "E7"EE ED | "Am"CB, A,2 :|2 "E7"EE EE | "Am"A2 A2 |]
